public/icons/card-lilly-laser-club.svg

<svg width="110" height="110" viewBox="0 0 110 110" fill="none" xmlns="http://www.w3.org/2000/svg">
<g clip-path="url(#clip0_87_2031)">
<path d="M110 110H0V0H110V110ZM57.619 75.0794C57.3086 75.0794 57.037 75.351 57.037 75.6614V88.1552C57.037 89.2804 57.2698 90.3668 57.6966 91.4145C58.1235 92.4233 58.7443 93.3157 59.5203 94.0917C61.1499 95.6825 63.3228 96.575 65.612 96.575C67.9012 96.575 70.0741 95.6825 71.7425 94.0917C72.5185 93.3157 73.1393 92.4233 73.6049 91.4145C74.0705 90.4056 74.3033 89.2804 74.3033 88.1552V75.6226C74.3033 75.3122 74.0317 75.0406 73.7213 75.0406H69.9965C69.6861 75.0406 69.4145 75.3122 69.4145 75.6226V87.8836C69.4145 88.8924 69.0265 89.8624 68.328 90.5996C67.6296 91.3369 66.6208 91.7249 65.612 91.7249C64.6032 91.7249 63.6332 91.3369 62.9347 90.5996C62.2363 89.8624 61.8871 88.8924 61.8871 87.8836V75.6226C61.8871 75.3122 61.6155 75.0406 61.3051 75.0406L57.619 75.0794V75.0794ZM22.6596 74.769C16.6455 74.769 11.7566 79.619 11.7566 85.6332V85.672C11.7566 90.0564 14.3563 94.0141 18.4303 95.6825C19.7884 96.2257 21.224 96.5362 22.6984 96.5362C24.0176 96.5362 25.3757 96.3033 26.6173 95.7989C27.8977 95.2945 29.0617 94.5573 30.0705 93.5873C30.3034 93.3545 30.3033 93.0053 30.1093 92.7725L27.7425 90.2504C27.6261 90.134 27.5097 90.0952 27.3545 90.0952C27.1993 90.0952 27.0829 90.134 26.9665 90.2116C25.8413 91.1429 24.4056 91.6473 22.9312 91.6473C21.3404 91.6473 19.7884 90.9877 18.6631 89.8236C17.5767 88.6596 16.9559 87.1076 16.9559 85.478C16.9559 83.8483 17.5379 82.2963 18.6243 81.0935C19.7108 79.8907 21.2628 79.231 22.8536 79.231C24.4444 79.231 25.8025 79.7742 26.9277 80.7831C27.1217 80.9771 27.4709 80.9771 27.6649 80.7831L30.0317 78.3386C30.1481 78.2222 30.2257 78.067 30.2257 77.9118C30.2257 77.7566 30.1481 77.6014 30.0317 77.485C28.0141 75.7002 25.3757 74.6914 22.6596 74.769ZM83.9647 75.0794C83.6543 75.0794 83.3827 75.351 83.3827 75.6614V95.6825C83.3827 95.9929 83.6543 96.2646 83.9647 96.2646H91.4533C93.1605 96.3034 94.7901 95.7213 96.1093 94.5961C97.351 93.5485 98.0494 92.0353 98.0494 90.4056C98.0494 87.5732 95.5273 86.0988 94.0141 85.478C94.8677 85.0123 95.6437 84.3915 96.3033 83.6931C97.0794 82.8783 97.5062 81.8307 97.5062 80.7055C97.5062 79.1534 96.8078 77.679 95.6049 76.709C94.3245 75.6226 92.6949 75.0794 91.0265 75.0794H83.9647ZM38.4515 75.0794C38.1411 75.0794 37.8695 75.351 37.8695 75.6614V95.6825C37.8695 95.9929 38.1411 96.2646 38.4515 96.2646H49.8201C50.1305 96.2646 50.4021 95.9929 50.4021 95.6825V92.3845C50.4021 92.0741 50.1305 91.8025 49.8201 91.8025H42.642V75.6226C42.642 75.3122 42.3704 75.0406 42.06 75.0406L38.4515 75.0794V75.0794ZM49.1605 59.8695C48.9277 59.8695 48.6949 59.9859 48.5397 60.2187L47.4533 62.0811C47.1817 62.5467 47.3369 62.7019 47.6085 62.9735C48.2293 63.5556 48.9665 64.0212 49.7425 64.3704C51.1781 65.03 52.6914 65.3404 54.2822 65.3404C55.2522 65.3404 56.261 65.1852 57.1534 64.836C57.9683 64.5256 58.7055 64.0988 59.3263 63.5168C59.9083 62.9735 60.3739 62.3139 60.7231 61.6155C61.0335 60.9171 61.2275 60.1411 61.2275 59.3651C61.2275 58.4727 61.0335 57.619 60.6455 56.8042C60.2575 56.067 59.7919 55.4462 59.1711 54.903C57.8907 53.8554 56.455 53.0794 54.903 52.4974C52.381 51.4497 51.3333 50.4797 51.3333 49.1217C51.3333 48.5785 51.6049 48.0741 52.0317 47.6861C52.575 47.2205 53.2734 46.9489 54.0106 46.9877C55.3686 46.9877 57.1922 47.9965 58.1623 48.6173L58.2011 48.6561C58.2787 48.7337 58.3951 48.7725 58.5115 48.7725C58.8219 48.7337 59.0935 48.5785 59.2487 48.3069L60.4127 46.5608C60.5291 46.4056 60.5679 46.1728 60.5291 45.9788C60.4903 45.7848 60.4127 45.6684 60.2575 45.552C58.5115 44.2716 56.3774 43.5732 54.2046 43.5344C52.3033 43.418 50.4021 44.1164 49.0053 45.4356C47.9965 46.4832 47.4145 47.8801 47.4145 49.3545C47.4145 50.1693 47.5697 50.9841 47.9189 51.7213C48.2293 52.381 48.6561 53.0018 49.1993 53.545C50.3245 54.5926 51.6825 55.3686 53.1182 55.9118C54.1658 56.2998 55.1358 56.843 55.9894 57.5414C56.6102 58.0459 56.9594 58.7831 56.9594 59.5591C56.9594 60.1799 56.649 60.8007 56.1834 61.2275C55.6402 61.6931 54.9418 61.9259 54.2046 61.8871C53.2346 61.8483 52.3033 61.5767 51.4885 61.1111C50.8677 60.8007 50.2857 60.4515 49.7425 60.0635C49.7037 60.0247 49.6649 60.0247 49.6649 60.0247C49.4709 59.9083 49.3157 59.8695 49.1605 59.8695V59.8695ZM86.836 56.7654H90.2116L94.2469 64.7972C94.3245 64.9912 94.5185 65.0688 94.7125 65.0688H97.8942C98.0882 65.0688 98.2822 64.9912 98.3986 64.7972C98.515 64.6032 98.515 64.3704 98.3986 64.1764L94.2469 56.4938C97.0018 55.3686 98.709 53.0406 98.709 50.4021C98.6702 46.7936 95.7213 43.8836 92.1129 43.8836H83.4603C83.1499 43.8836 82.8783 44.1552 82.8783 44.4656V64.4868C82.8783 64.7972 83.1499 65.0688 83.4603 65.0688H86.254C86.5644 65.0688 86.836 64.7972 86.836 64.4868V56.7654V56.7654ZM65.6896 43.8836C65.3792 43.8836 65.1076 44.1552 65.1076 44.4656V64.4868C65.1076 64.7972 65.3792 65.0688 65.6896 65.0688H77.9894C78.2998 65.0688 78.5714 64.7972 78.5714 64.4868V62.0035C78.5714 61.6931 78.2998 61.4215 77.9894 61.4215H69.0265V56.1446H76.515C76.8254 56.1446 77.097 55.873 77.097 55.5626V53.0406C77.097 52.7302 76.8254 52.4586 76.515 52.4586H69.0265V47.4921H77.9894C78.2998 47.4921 78.5714 47.2205 78.5714 46.9101V44.4268C78.5714 44.1164 78.2998 43.8448 77.9894 43.8448H65.6896V43.8836ZM31.4286 61.1887H40.4691L41.9436 64.448C42.06 64.836 42.4092 65.0688 42.836 65.0688H45.4744C45.6684 65.0688 45.8624 64.9912 45.9788 64.836C46.0952 64.6808 46.0952 64.448 45.9788 64.2928L36.6667 43.9224C36.5891 43.7284 36.3951 43.5732 36.1623 43.5732H35.8519C35.619 43.5732 35.425 43.6896 35.3474 43.9224L25.9577 64.2928C25.8801 64.448 25.8801 64.6808 25.9577 64.836C26.0741 64.9912 26.2681 65.1076 26.4621 65.0688H29.1005C29.4885 65.0688 29.8377 64.836 29.9929 64.448L31.4286 61.1887V61.1887ZM12.9982 43.8836C12.6878 43.8836 12.4162 44.1552 12.4162 44.4656V64.4868C12.4162 64.7972 12.6878 65.0688 12.9982 65.0688H24.0564C24.3668 65.0688 24.6384 64.7972 24.6384 64.4868V62.0035C24.6384 61.6931 24.3668 61.4215 24.0564 61.4215H16.3351V44.4656C16.3351 44.1552 16.0635 43.8836 15.7531 43.8836H12.9982V43.8836ZM82.8395 13.1922C82.7231 13.1922 82.6067 13.231 82.5291 13.3474C82.4903 13.4638 82.5291 13.5802 82.6067 13.6578L90.328 24.0952V33.9894C90.328 34.3386 90.6772 34.3774 90.9877 34.3774H91.3369C91.5697 34.3774 91.7249 34.1834 91.7249 33.9894V24.0564L99.6014 13.6578C99.679 13.5802 99.7178 13.4638 99.679 13.3474C99.6014 13.231 99.485 13.1922 99.3686 13.1922H98.4762C98.321 13.1922 98.1658 13.2698 98.0882 13.3862L91.0653 22.776L84.1587 13.3862C84.0811 13.2698 83.9259 13.1922 83.7707 13.1922H82.8395V13.1922ZM67.7848 13.1922C67.552 13.1922 67.3968 13.3862 67.3968 13.5802V33.9506C67.3968 34.1834 67.5908 34.3386 67.7848 34.3386H78.455C78.649 34.3774 78.8042 34.2222 78.843 34.0282V33.4462C78.843 33.2522 78.8042 33.0582 78.455 33.0582H68.7937V13.5414C68.7937 13.3474 68.6384 13.1534 68.4444 13.1534H67.7848V13.1922ZM47.5309 13.1922C47.2981 13.1922 47.1429 13.3862 47.1429 13.5802V33.9506C47.1429 34.1834 47.3369 34.3386 47.5309 34.3386H58.2011C58.3951 34.3774 58.5503 34.2222 58.5891 34.0282V33.4462C58.5891 33.2522 58.5503 33.0582 58.2011 33.0582H48.5397V13.5414C48.5397 13.3474 48.3845 13.1534 48.1905 13.1534H47.5309V13.1922ZM34.2222 13.1922C33.9894 13.1922 33.8342 13.3862 33.8342 13.5802V33.9506C33.8342 34.1834 34.0282 34.3386 34.2222 34.3386H34.843C35.0758 34.3386 35.2698 34.1834 35.2698 33.9506V13.5802C35.2698 13.3474 35.0758 13.1922 34.8818 13.1922H34.2222V13.1922ZM13.9683 13.1922C13.7354 13.1922 13.5802 13.3862 13.5802 13.5802V33.9506C13.5802 34.1834 13.7743 34.3386 13.9683 34.3386H24.6384C24.8325 34.3774 24.9877 34.2222 25.0265 34.0282V33.4462C25.0265 33.2134 24.9877 33.0582 24.6384 33.0582H14.9771V13.5414C14.9771 13.3474 14.8219 13.1534 14.6279 13.1534H13.9683V13.1922ZM90.8325 91.9189H88.0776V87.612H90.522C91.6861 87.612 93.0053 88.5044 93.0053 89.746C93.0441 90.9101 92.0741 91.8801 90.8325 91.9189V91.9189ZM90.4444 83.6543H88.0776V79.425H90.4444C90.9877 79.425 91.5309 79.619 91.9189 80.0071C92.3069 80.3951 92.5397 80.9383 92.5397 81.4815C92.5397 82.0635 92.3069 82.6067 91.9189 83.0335C91.5697 83.4215 91.0265 83.6543 90.4444 83.6543ZM38.9947 57.8519H32.903L35.8519 51.2169H35.9295L38.9947 57.8519ZM91.8025 53.545H86.8748V47.5309H91.8025C93.4321 47.5309 94.7513 48.8501 94.7901 50.4797C94.7901 52.1481 93.4709 53.5062 91.8025 53.545Z" fill="white"/>
</g>
<defs>
<clipPath id="clip0_87_2031">
<rect width="110" height="110" fill="white"/>
</clipPath>
</defs>
</svg>

<svg xmlns="http://www.w3.org/2000/svg" width="110" height="110" fill="none" xmlns:v="https://vecta.io/nano"><g clip-path="url(#A)"><path d="M110 110H0V0h110v110zM57.619 75.079a.6.6 0 0 0-.582.582v12.494a8.58 8.58 0 0 0 .66 3.259c.427 1.009 1.048 1.901 1.824 2.677a8.7 8.7 0 0 0 6.092 2.483c2.289 0 4.462-.892 6.131-2.483.776-.776 1.397-1.668 1.862-2.677s.698-2.134.698-3.259V75.623a.6.6 0 0 0-.582-.582h-3.725a.6.6 0 0 0-.582.582v12.261c0 1.009-.388 1.979-1.087 2.716s-1.707 1.125-2.716 1.125-1.979-.388-2.677-1.125-1.048-1.707-1.048-2.716V75.623a.6.6 0 0 0-.582-.582l-3.686.039h0zm-34.959-.31c-6.014 0-10.903 4.85-10.903 10.864v.039c0 4.384 2.6 8.342 6.674 10.011 1.358.543 2.794.854 4.268.854 1.319 0 2.677-.233 3.919-.737a10.51 10.51 0 0 0 3.453-2.212.6.6 0 0 0 .039-.815l-2.367-2.522c-.116-.116-.233-.155-.388-.155s-.272.039-.388.116c-1.125.931-2.561 1.436-4.035 1.436-1.591 0-3.143-.66-4.268-1.824a6.37 6.37 0 0 1-1.707-4.346c0-1.63.582-3.182 1.668-4.384s2.638-1.863 4.229-1.863a5.92 5.92 0 0 1 4.074 1.552.54.54 0 0 0 .737 0l2.367-2.445c.116-.116.194-.272.194-.427s-.078-.31-.194-.427c-2.018-1.785-4.656-2.794-7.372-2.716zm61.305.31a.6.6 0 0 0-.582.582v20.021a.6.6 0 0 0 .582.582h7.489c1.707.039 3.337-.543 4.656-1.668a5.44 5.44 0 0 0 1.94-4.19c0-2.832-2.522-4.307-4.035-4.928.854-.466 1.63-1.087 2.289-1.785.776-.815 1.203-1.862 1.203-2.988 0-1.552-.698-3.026-1.901-3.996-1.28-1.086-2.91-1.63-4.578-1.63h-7.062zm-45.513 0a.6.6 0 0 0-.582.582v20.021a.6.6 0 0 0 .582.582H49.82a.6.6 0 0 0 .582-.582v-3.298a.6.6 0 0 0-.582-.582h-7.178v-16.18a.6.6 0 0 0-.582-.582l-3.608.039h0zm10.709-15.21c-.233 0-.466.116-.621.349l-1.086 1.862c-.272.466-.116.621.155.892.621.582 1.358 1.048 2.134 1.397 1.436.66 2.949.97 4.54.97.97 0 1.979-.155 2.871-.504.815-.31 1.552-.737 2.173-1.319.582-.543 1.048-1.203 1.397-1.901.31-.698.504-1.474.504-2.25 0-.892-.194-1.746-.582-2.561-.388-.737-.854-1.358-1.474-1.901-1.28-1.048-2.716-1.824-4.268-2.406-2.522-1.048-3.57-2.018-3.57-3.376 0-.543.272-1.048.698-1.436.543-.466 1.242-.737 1.979-.698 1.358 0 3.182 1.009 4.152 1.63l.039.039a.44.44 0 0 0 .31.116c.31-.039.582-.194.737-.466l1.164-1.746c.116-.155.155-.388.116-.582s-.116-.31-.272-.427c-1.746-1.28-3.88-1.979-6.053-2.018a7 7 0 0 0-5.199 1.901 5.65 5.65 0 0 0-1.591 3.919c0 .815.155 1.63.504 2.367.31.66.737 1.281 1.28 1.824 1.125 1.048 2.483 1.824 3.919 2.367 1.048.388 2.018.931 2.871 1.63.621.505.97 1.242.97 2.018 0 .621-.31 1.242-.776 1.668-.543.466-1.242.698-1.979.66-.97-.039-1.901-.31-2.716-.776a13 13 0 0 1-1.746-1.048c-.039-.039-.078-.039-.078-.039-.194-.116-.349-.155-.504-.155h0zm37.676-3.104h3.376l4.035 8.032c.078.194.272.272.466.272h3.182c.194 0 .388-.078.504-.272s.116-.427 0-.621l-4.152-7.683c2.755-1.125 4.462-3.453 4.462-6.092a6.6 6.6 0 0 0-6.596-6.518H83.46a.6.6 0 0 0-.582.582v20.021a.6.6 0 0 0 .582.582h2.794a.6.6 0 0 0 .582-.582v-7.721h0zM65.69 43.884a.6.6 0 0 0-.582.582v20.021a.6.6 0 0 0 .582.582h12.3a.6.6 0 0 0 .582-.582v-2.483a.6.6 0 0 0-.582-.582h-8.963v-5.277h7.489a.6.6 0 0 0 .582-.582v-2.522a.6.6 0 0 0-.582-.582h-7.489v-4.966h8.963a.6.6 0 0 0 .582-.582v-2.483a.6.6 0 0 0-.582-.582h-12.3v.039zM31.429 61.189h9.04l1.475 3.259c.116.388.466.621.892.621h2.638c.194 0 .388-.078.504-.233s.116-.388 0-.543l-9.312-20.37c-.078-.194-.272-.349-.504-.349h-.31a.5.5 0 0 0-.505.349l-9.39 20.37c-.078.155-.078.388 0 .543.116.155.31.272.504.233h2.638c.388 0 .737-.233.892-.621l1.436-3.259h0zm-18.43-17.305a.6.6 0 0 0-.582.582v20.021a.6.6 0 0 0 .582.582h11.058a.6.6 0 0 0 .582-.582v-2.483a.6.6 0 0 0-.582-.582h-7.721V44.466a.6.6 0 0 0-.582-.582h-2.755 0zM82.84 13.192c-.116 0-.233.039-.31.155-.039.116 0 .233.078.31l7.721 10.437v9.894c0 .349.349.388.66.388h.349a.39.39 0 0 0 .388-.388v-9.933l7.876-10.399c.078-.078.116-.194.078-.31-.078-.116-.194-.155-.31-.155h-.892c-.155 0-.31.078-.388.194l-7.023 9.39-6.907-9.39c-.078-.116-.233-.194-.388-.194h-.931 0zm-15.055 0a.39.39 0 0 0-.388.388v20.37a.39.39 0 0 0 .388.388h10.67c.194.039.349-.116.388-.31v-.582c0-.194-.039-.388-.388-.388h-9.661V13.541c0-.194-.155-.388-.349-.388h-.66v.039zm-20.254 0a.39.39 0 0 0-.388.388v20.37a.39.39 0 0 0 .388.388h10.67c.194.039.349-.116.388-.31v-.582c0-.194-.039-.388-.388-.388H48.54V13.541c0-.194-.155-.388-.349-.388h-.66v.039zm-13.309 0a.39.39 0 0 0-.388.388v20.37a.39.39 0 0 0 .388.388h.621c.233 0 .427-.155.427-.388V13.58a.39.39 0 0 0-.388-.388h-.66 0zm-20.254 0a.39.39 0 0 0-.388.388v20.37a.39.39 0 0 0 .388.388h10.67c.194.039.349-.116.388-.31v-.582c0-.233-.039-.388-.388-.388h-9.661V13.541c0-.194-.155-.388-.349-.388h-.66v.039zm76.864 78.727h-2.755v-4.307h2.444c1.164 0 2.483.892 2.483 2.134.039 1.164-.931 2.134-2.173 2.173h0zm-.388-8.265h-2.367v-4.229h2.367c.543 0 1.087.194 1.474.582a2.12 2.12 0 0 1 .621 1.474c0 .582-.233 1.125-.621 1.552-.349.388-.892.621-1.474.621zm-51.45-25.802h-6.092l2.949-6.635h.078l3.065 6.635zm52.808-4.307h-4.928v-6.014h4.928c1.63 0 2.949 1.319 2.988 2.949 0 1.668-1.319 3.026-2.988 3.065z" fill="#fff"/></g><defs><clipPath id="A"><path fill="#fff" d="M0 0h110v110H0z"/></clipPath></defs></svg>
